src/images/svg/be-square/paid-programme.svg

<svg width="64" height="64" viewBox="0 0 64 64" fill="none" xmlns="http://www.w3.org/2000/svg">
<path d="M42.745 40.7222C40.8208 40.7222 39.2554 39.3672 39.2554 37.7019C39.2554 36.0364 40.8208 34.6814 42.745 34.6814C44.6693 34.6814 46.2347 36.0364 46.2347 37.7019C46.2347 38.5778 46.945 39.2881 47.8209 39.2881C48.6968 39.2881 49.4071 38.5778 49.4071 37.7019C49.4071 34.7952 47.2413 32.3511 44.3312 31.6878V30.8628C44.3312 29.9869 43.6209 29.2766 42.745 29.2766C41.8691 29.2766 41.1588 29.9869 41.1588 30.8628V31.6878C38.2488 32.3511 36.083 34.7952 36.083 37.7019C36.083 41.1165 39.0716 43.8946 42.745 43.8946C44.6693 43.8946 46.2347 45.2495 46.2347 46.915C46.2347 48.5805 44.6693 49.9354 42.745 49.9354C40.8208 49.9354 39.2554 48.5805 39.2554 46.915C39.2554 46.0391 38.5451 45.3288 37.6692 45.3288C36.7933 45.3288 36.083 46.0391 36.083 46.915C36.083 49.8217 38.2488 52.2657 41.1588 52.9291V53.6143C41.1588 54.4902 41.8691 55.2005 42.745 55.2005C43.6209 55.2005 44.3312 54.4902 44.3312 53.6143V52.9291C47.2413 52.2657 49.4071 49.8217 49.4071 46.915C49.4071 43.5002 46.4185 40.7222 42.745 40.7222Z" fill="#FF444F"/>
<path d="M48.426 21.896C48.2739 21.5335 48.0875 21.1918 47.8707 20.875H51.1249C54.2954 20.875 56.8749 18.2955 56.8749 15.125C56.8749 11.9545 54.2954 9.37498 51.1249 9.37498H41.1149C41.7513 8.44973 42.1249 7.33036 42.1249 6.12499C42.1249 2.9545 39.5454 0.375 36.3749 0.375H5.74999C2.57949 0.375 0 2.9545 0 6.12499C0 9.29548 2.57949 11.875 5.74999 11.875H15.76C15.1236 12.8002 14.75 13.9196 14.75 15.125C14.75 16.3303 15.1235 17.4497 15.76 18.375H12.5C9.32948 18.375 6.74999 20.9545 6.74999 24.125C6.74999 25.9458 7.60174 27.5707 8.92686 28.6249C7.60174 29.6792 6.74999 31.3041 6.74999 33.1249C6.74999 34.9458 7.60174 36.5707 8.92686 37.6249C7.60174 38.6792 6.74999 40.3041 6.74999 42.1249C6.74999 43.9458 7.60174 45.5707 8.92686 46.6249C7.60174 47.6792 6.74999 49.304 6.74999 51.1249C6.74999 54.2954 9.32948 56.8749 12.5 56.8749H27.2312C31.1119 61.0258 36.6327 63.625 42.75 63.625C54.4673 63.625 64 54.0923 64 42.375C64 32.6229 57.3963 24.3853 48.426 21.896ZM51.1249 11.875C52.917 11.875 54.3749 13.333 54.3749 15.125C54.3749 16.917 52.917 18.375 51.1249 18.375H43.1249H20.5C18.7078 18.375 17.25 16.917 17.25 15.125C17.25 13.333 18.7078 11.875 20.5 11.875H51.1249ZM5.74999 9.37498C3.95787 9.37498 2.5 7.91699 2.5 6.12499C2.5 4.33299 3.95787 2.875 5.74999 2.875H36.3749C38.1671 2.875 39.6249 4.33299 39.6249 6.12499C39.6249 7.91699 38.1671 9.37498 36.3749 9.37498H5.74999ZM12.5 20.875H43.1249C43.6284 20.875 44.1105 20.992 44.543 21.2015C43.9518 21.1518 43.354 21.1251 42.75 21.1251C36.8819 21.1251 31.5619 23.5162 27.7127 27.375H12.5C10.708 27.375 9.24998 25.917 9.24998 24.125C9.24998 22.333 10.708 20.875 12.5 20.875ZM12.5 29.8749H25.5768C24.1578 31.8191 23.0607 34.0118 22.364 36.3749H12.5C10.7079 36.3749 9.24998 34.9171 9.24998 33.1249C9.24998 31.3329 10.7079 29.8749 12.5 29.8749ZM12.5 38.8749H21.79C21.6003 40.0141 21.5001 41.1829 21.5001 42.375C21.5001 43.3933 21.5737 44.3945 21.7128 45.3749H12.5C10.7079 45.3749 9.24998 43.917 9.24998 42.1249C9.24998 40.3328 10.7079 38.8749 12.5 38.8749ZM12.5 54.3749C10.7079 54.3749 9.24998 52.917 9.24998 51.1249C9.24998 49.3328 10.7079 47.8749 12.5 47.8749H22.2232C22.854 50.2265 23.8786 52.4182 25.2223 54.3749H12.5ZM42.75 61.125C32.4113 61.125 24.0001 52.7138 24.0001 42.375C24.0001 32.0363 32.4113 23.6251 42.75 23.6251C53.0888 23.6251 61.5 32.0363 61.5 42.375C61.5 52.7138 53.0888 61.125 42.75 61.125Z" fill="#FF444F"/>
</svg>

<svg xmlns="http://www.w3.org/2000/svg" width="64" height="64" fill="#ff444f"  xmlns:v="https://vecta.io/nano"><path d="M42.745 40.722c-1.924 0-3.49-1.355-3.49-3.02s1.565-3.021 3.49-3.021 3.49 1.355 3.49 3.021c0 .876.71 1.586 1.586 1.586s1.586-.71 1.586-1.586c0-2.907-2.166-5.351-5.076-6.014v-.825c0-.876-.71-1.586-1.586-1.586s-1.586.71-1.586 1.586v.825c-2.91.663-5.076 3.107-5.076 6.014 0 3.415 2.989 6.193 6.662 6.193 1.924 0 3.49 1.355 3.49 3.02s-1.565 3.02-3.49 3.02-3.49-1.355-3.49-3.02c0-.876-.71-1.586-1.586-1.586s-1.586.71-1.586 1.586c0 2.907 2.166 5.351 5.076 6.014v.685c0 .876.71 1.586 1.586 1.586s1.586-.71 1.586-1.586v-.685c2.91-.663 5.076-3.107 5.076-6.014 0-3.415-2.989-6.193-6.662-6.193zm5.681-18.826a5.74 5.74 0 0 0-.555-1.021h3.254a5.76 5.76 0 0 0 5.75-5.75 5.76 5.76 0 0 0-5.75-5.75h-10.01a5.72 5.72 0 0 0 1.01-3.25 5.76 5.76 0 0 0-5.75-5.75H5.75A5.76 5.76 0 0 0 0 6.125a5.76 5.76 0 0 0 5.75 5.75h10.01a5.72 5.72 0 0 0-1.01 3.25 5.71 5.71 0 0 0 1.01 3.25H12.5a5.76 5.76 0 0 0-5.75 5.75 5.74 5.74 0 0 0 2.177 4.5 5.74 5.74 0 0 0 0 9 5.74 5.74 0 0 0 0 9 5.74 5.74 0 0 0-2.177 4.5 5.76 5.76 0 0 0 5.75 5.75h14.731c3.881 4.151 9.401 6.75 15.519 6.75 11.717 0 21.25-9.533 21.25-21.25 0-9.752-6.604-17.99-15.574-20.479zm2.699-10.021c1.792 0 3.25 1.458 3.25 3.25s-1.458 3.25-3.25 3.25H20.5c-1.792 0-3.25-1.458-3.25-3.25s1.458-3.25 3.25-3.25h30.625zM5.75 9.375c-1.792 0-3.25-1.458-3.25-3.25s1.458-3.25 3.25-3.25h30.625c1.792 0 3.25 1.458 3.25 3.25s-1.458 3.25-3.25 3.25H5.75zm6.75 11.5h30.625a3.25 3.25 0 0 1 1.418.326c-.591-.05-1.189-.076-1.793-.076-5.868 0-11.188 2.391-15.037 6.25H12.5c-1.792 0-3.25-1.458-3.25-3.25s1.458-3.25 3.25-3.25zm0 9h13.077a21.19 21.19 0 0 0-3.213 6.5H12.5c-1.792 0-3.25-1.458-3.25-3.25s1.458-3.25 3.25-3.25zm0 9h9.29a21.29 21.29 0 0 0-.29 3.5 21.34 21.34 0 0 0 .213 3H12.5c-1.792 0-3.25-1.458-3.25-3.25s1.458-3.25 3.25-3.25zm0 15.5c-1.792 0-3.25-1.458-3.25-3.25s1.458-3.25 3.25-3.25h9.723a21.17 21.17 0 0 0 2.999 6.5H12.5zm30.25 6.75c-10.339 0-18.75-8.411-18.75-18.75s8.411-18.75 18.75-18.75 18.75 8.411 18.75 18.75-8.411 18.75-18.75 18.75z"/></svg>
